X:1
T:James Gibb editions
T:Stand up! stand up for Jesus - Barnby
%%score [ ( 1 2 ) ( 3 4 ) ]
L:1/8
Q:1/4=104
M:4/4
K:C
V:1 treble nm="Midi_74"
V:2 treble 
V:3 bass nm="Midi_74"
V:4 bass 
V:1
"^Joseph Barnby\n(1838-96)""^Stand up (76. 76. D)""^George Duffield\n(1818-88)" G2"^Stand up! stand up for Jesus" | %1
 G2 G2 c2 d2 | e4 c2 || A2 | G2 c2 c2 B2 | c6 || c2 | d3 d d2 c2 | B4 e2 || e2 | d2 G2 c2 c2 | %11
 B6 ||[M:4/4] B2 | A3 A A2 d2 | d4 G2 || G2 | c2 c2 _B2 B2 | A6 || A2 | B2 G2 A2 B2 | c4 d2 || d2 | %22
 e4 c4 | c4 B4 | c6 || c4 c4 |] %26
V:2
 G2 | E2 G2 F2 F2 | E4 G2 || F2 | E2 G2 G2 G2 | G6 || G2 | ^F3 F G2 F2 | (G2 B2) B2 || A2 | %10
 D2 E2 E2 ^F2 | G6 ||[M:4/4] D2 | E3 E D2 D2 | G4 G2 || G2 | G2 E2 F2 G2 | F6 || C2 | D2 G2 G2 F2 | %20
 (G2 E2) ^F2 || ^F2 | G4 G4 | G6 F2 | E6 || F4 E4 |] %26
V:3
 G,2 | C2 D2 C2 B,2 | C4 C2 || C2 | C2 DE D2"^_-" F2 | E6 || E2 | D3 D D2 D2 | D4 D2 || C2 | %10
 B,2 CB, A,2 D2 | D6 || %12
[M:4/4]"^1.  Stand up, stand up for Jesus, ye soldiers of the cross;\nLift high His royal banner, it must not suffer loss.\nFrom victory unto victory His army shall He lead,\nTill every foe is vanquished, and Christ is Lord indeed.\n\n2.  Stand up, stand up for Jesus, the solemn watchword hear;\nIf while ye sleep He suffers, away with shame and fear;\nWhere’er ye meet with evil, within you or without,\nCharge for the God of battles, and put the foe to rout.\n\n3.  Stand up, stand up for Jesus, the trumpet call obey;\nForth to the mighty conflict, in this His glorious day.\nYe that are brave now serve Him against unnumbered foes;\nLet courage rise with danger, and strength to strength oppose.\n\n4.  Stand up, stand up for Jesus, stand in His strength alone;\nThe arm of flesh will fail you, ye dare not trust your own.\nPut on the Gospel armour, each piece put on with prayer;\nWhere duty calls or danger, be never wanting there.\n\n5.  Stand up, stand up for Jesus, each soldier to his post,\nClose up the broken column, and shout through all the host:\nMake good the loss so heavy, in those that still remain,\nAnd prove to all around you that death itself is gain.\n\n6. Stand up, stand up for Jesus, the strife will not be long;\nThis day the noise of battle, the next the victor’s song.\nTo those who vanquish evil a crown of life shall be;\nThey with the King of Glory shall reign eternally.\n" B,2 | %13
 C3 C D2 A,2 | B,4 B,2 || B,2 | C2 E2 D2 C2 | C6 || C2 | D2 B,2 C2 D2 | (C2- E2) D2 || C2 | %22
 C4 (D2 E2) | D4 G,4 | G,6 || A,4 G,4 |] %26
V:4
 G,2 | C2 B,2 A,2 G,2 | C4 E,2 || F,2 | G,2 G,2 G,2 G,2 | C,6 || C2 | C3 C B,2 A,2 | G,4 C,2 || %9
 C,2 | D,2 D,2 D,2 D,2 | G,6 ||[M:4/4] G,2 | G,3 G, F,2 F,2 | F,4 F,2 || F,2 | E,2 C,2 D,2 E,2 | %17
 F,6 || F,2 | F,3 F, E,2 D,2 | (E,2 C,2) A,,2 || D,2 | G,,4 G,4 | G,4 G,,4 | C,6 || F,4 C,4 |] %26

